X: 7
T: Chanter's Song
Z: JACKB
S: https://thesession.org/tunes/2082#setting26661
R: polka
M: 2/4
L: 1/8
K: Dmix
DD AG/E/|DD cB/c/|dA AG/E/|cB/c/ AG/E/|
DD AG/E/|DD cB/c/|dA AG/E/|D2 D2:|
|:AA/B/ cB/c/|A/G/A/B/ cB/c/|dA AG/E/|cB/c/ AG/E/|
DD AG/E/|DD cB/c/|dA AG/E/|D2 D2:|
